X:1
T:James Gibb editions
T:Vivo ego - Lobo
T:#
%%score [ 1 2 3 4 ]
L:1/8
Q:1/4=96
M:4/4
K:F
V:1 treble nm="Soprano" snm="S"
V:2 treble nm="Alto" snm="A"
V:3 treble-8 nm="Tenor" snm="T"
V:4 bass nm="Bass" snm="B"
V:1
"^Vivo ego, dicit Dominus""^Alonso Lobo\n(1555-1617)" z4 d4- | d2 G2 B4 | A4 z2 f2 | d2 (e3 d d2- | %4
w: Vi\-|* vo e-|go, di-|cit Do\- * *|
 d2) ^c2 d4 | z8 | d6 d2 | (f3 e d2 cB | c2) B2 (ABcA) | B2 c4 B2 | A4 z2 d2 | B2 (c3 B G2 | %12
w: * mi- nus,||vi- vo|e\- * * * *|* go, di\- * * *|cit Do- mi-|nus, di-|cit Do\- * *|
 A3 A G4 | z8 | z4 z2 B2 | G2 (A3 G G2- | G2) ^F2 G4 | z8 | d4 d2 d2- | d2 c2 f3 e | d2) c2 B4 | %21
w: * mi- nus,||di-|cit Do\- * *|* mi- nus:||no- lo mor\-|* tem pec\- *|* ca- to-|
 A4 z2 d2 | d2 (f3 e) (dc) | B2 c2 d4 | B4 z2 d2- | d2 d2 c2 d2 | B2 c2 A4 | G2 B2 A2 d2- | %28
w: ris, no-|lo mor\- * tem *|pec- ca- to-|ris, sed|* ut ma- gis|con- ver- ta-|tur, sed ut ma\-|
 d2 ^c2 (d =c B A | B2) A2 B2 d2 | (c3 d) e2 (f2- | f e d3 c c2- | c2) B2 A2 B2- | B2 A2 G4 | %34
w: * gis con\- * * *|* ver- ta- tur,|sed * ut ma\-||* gis con- ver\-|* ta- tur,|
 z2 g4 ^f2 | g2 d2 =f2 e2 | (f3 e d2 cB | c2) A2 d2 (c2- | c2 BA) (B4- | B2 A2) G2 g2- | gf e2 d4 | %41
w: sed ut|ma- gis con- ver-|ta\- * * * *|* tur, sed ut|* * * ma\-|* * gis con\-|* ver- ta- tur,|
 z2 d4 d2 | c2 A2 d2 G2 | (A G A B c4 | F2 G4 ^F2) | G4 z4 | z4 d4 | (f4 e4) | d8 | z2 d4 (c2- | %50
w: sed ut|ma- gis con- ver-|ta\- * * * *||tur,|et|vi\- *|vat,|et vi\-|
 c2 B2) A4 | z2[Q:1/4=95] G2[Q:1/4=93] (G[Q:1/4=92] A[Q:1/4=91] B[Q:1/4=90] c | %52
w: * * vat,|et vi\- * * *|
[Q:1/4=88] d4[Q:1/4=85] B2[Q:1/4=84] c2- | %53
w: |
[Q:1/4=82] c2[Q:1/4=81] =B[Q:1/4=80]A)[Q:1/4=80] !fermata!B4 |] %54
w: * * * vat.|
V:2
 G6 G2 | (B3 A G F G2- | G2 FE) F2 A2 | F2 (G3 F D2 | E3) E D2 B2 | G2 (A3 G G2- | G2 ^F2) (GABG) | %7
w: Vi- vo|e\- * * * *|* * * go, di-|cit Do\- * *|* mi- nus, di-|cit Do\- * *|* * mi\- * * *|
 A4 z4 | G4 C4 | _E4 D2 (G2- | G2 ^FE FGAF) | G2 (A3 G G2- | G2 ^F2 G2 D2- | D2 D2 =F4 | E4 F2 G2 | %15
w: nus,|vi- vo|e- go, di\-||cit Do\- * *|* mi- nus, vi\-|* vo e-|go, di- cit|
 D2 F2 D4 | z2 D4 D2 | (G3 A B2) A2 | B2 F2 G2 A2) | G4 z2 F2 | G2 A3 G G2- | G2 ^F2 G4 | =F4 z4 | %23
w: Do- mi- nus:|no- lo|mor\- * * tem|pec- ca- to\- *|ris, no-|lo mor- tem pec\-|* ca- to-|ris,|
 z4 G4 | G2 G4 F2 | (B3 A G2) F2 | _E4 D4- | D8 | z2 G2 ^F2 G2 | D4 z2 A2- | A2 A2 G2 A2 | %31
w: no-|lo mor- tem|pec\- * * ca-|to- ris,||sed ut ma-|gis, sed|* ut ma- gis|
 F2 G2 E4 | D8 | z2 C4 =B,2 | (C2 G,2) A,2 A2 | B4 A4 | A2 (B3 A G2- | G2) ^F2 (G=FED | %38
w: con- ver- ta-|tur.|sed ut|ma\- * gis con-|ver- ta-|tur, con\- * *|* ver- ta\- * * *|
 C2 D4 B,2) | C2 c4 c2 | =B2 c2 A2 _B2 | G4 F2 G2- | G2 ^F2 G2 D2 | =F2 F2 _E4 | D8 | z2 D2 (DEFG | %46
w: |tur, sed ut|ma- gis con- ver-|ta- tur, sed|* ut ma- gis|con- ver- ta-|tur,|et vi\- * * *|
 A B c A B2 AG | A6 G2 | z2 G2 (B4 | A4) G4 | z2 G2 F E F G | A2) D4 (G2- | G2 F2) _E4 | %53
w: |* vat,|et vi\-|* vat,|et vi\- * * *|* vat, et|* * vi-|
 !fermata!D8 |] %54
w: vat.|
V:3
 z8 | z8 | z4 d4- | d2 G2 B4 | A4 z2 d2 | B2 (=c3 B G2 | A3 A G2 g2 | d2 (f4 _e d | %8
w: ||Vi\-|* vo e-|go, di-|cit Do\- * *|* mi- nus, vi-|vo e\- * *|
 _e2) d2 ^f2 f2 | g6 d2 | d4 z4 | z8 | z2 d4 d2 | f3 e d c d2- | d2 cB) c2 d2 | B2 (c3 B B A/ G/ | %16
w: * go, di- cit|Do- mi-|nus,||vi- vo|e\- * * * *|* * * go, di-|cit Do\- * * * *|
 A3) A G4 | z2 d2 d2 (f2- | f e d c B2) A2 | B2 G2 (A4 | B2 c2) d4 | z2 d2 d2 d2- | d2 c2 (f3 e) | %23
w: * mi- nus~:|no- lo mor\-|* * * * * tem|pec- ca- to\-|* * ris,|no- lo mor\-|* tem pec\- *|
 d2 (c4 BA | GABc) d4 | z8 | g6 ^f2 | g2 d2 =f2 f2 | e4 d4 | z2 d2 d2 (f2- | f2 e4 c2) | %31
w: ca- to\- * *|* * * * ris,||sed ut|ma- gis con- ver-|ta- tur.|con- ver- ta\-||
 d4 z2 g2- | g2 g2 ^f2 g2 | e2 =f2 d4 | c4 z2 d2- | d2 d4 ^c2 | d4 B2 c2 | A4 G2 g2- | %38
w: tur. sed|* ut ma- gis|con- ver- ta-|tur. sed|* ut ma-|gis con- ver-|ta- tur. sed|
 g2 f2 g2 d2 | f2 f2 (e d e f | g4 f4 | e2 dc) d4 | z2 c4 =B2 | c6 G2 | B2 B2 A4 | G4 z2 d2 | %46
w: * ut ma- gis|con- ver- ta\- * * *||* * * tur,|sed ut|ma- gis|con- ver- ta-|tur, et|
 (e d e f g2 fe | d2 c B c4) | G4 z2 d2 | (f4 e4) | d8 | z2 G2 (B4 | A4) G4- | !fermata!G8 |] %54
w: vi\- * * * * * *||vat, et|vi\- *|vat,|et vi\-|* vat.||
V:4
 z8 | z8 | z8 | z8 | z4 G,4- | G,2 C,2 _E,4 | D,4 z4 | z2 D2 B,2 (C2- | C B, G,2 A,3) A, | G,8 | %10
w: ||||Vi\-|* vo e-|go,|di- cit Do\-|* * * * mi-|nus,|
 z2 D4 D2 | (_E D C B, C2) E2 | D2 D2 G,3 G, | D,4 z2 B,2 | (G,2 A,3 G, G,2- | G,2) F,2 (G,4 | %16
w: vi- vo|e\- * * * * go,|di- cit Do- mi-|nus, di-|Do\- * * *|* mi- nus|
 D,4) z2 G,2 | G,2 G,4 F,2 | (B,3 A, G,2) F,2 | _E,4 D,4 | z4 D,4- | D,2 D,2 (G,3 A, | %22
w: * no-|lo mor- tem|pec\- * * ca-|ro- ris,|no\-|* lo mor\- *|
 B,2) A,2 B,2 F,2 | (G,2 A,2) G,4 | z2 G,2 G,2 (B,2- | B, A, G, F, _E,2) D,2 | _E,2 C,2 D,4 | %27
w: * tem pec- ca-|to\- * ris,|no- lo mor\-|* * * * * tem|pec- ca- to-|
 G,4 z4 | z4 z2 G,2- | G,2 ^F,2 G,2 (D,E, | =F, G, A, B, C2) F,2 | B,4 C4 | G,4 z2 G,2- | %33
w: ris,|sed|* ut ma- gis *|* * * * * con-|ver- ta-|tur. sed|
 G,2 F,2 G,4 | C,2 _E,2 D,4 | G,4 A,4 | z4 z2 C2- | C2 C2 =B,2 C2 | A,2 B,2 G,4 | %39
w: * ut ma-|gis con- ver-|ta- tur.|sed|* ut ma- gis|con- ver- ta-|
 (F, G, A, B, C4) | z2 C4 B,2 | C2 G,2 B,2 B,2 | A,4 G,4 | F,2 F,2 C,4 | D,8 | z2 G,2 (B,4 | %46
w: tur, * * * *|sed ut|ma- gis con- ver-|ta- tur,|con- ver- ta-|tur,|et vi\-|
 A,4) G,2 D,2 | (D,E,F,G, A, B, C2 | C2 B,A, G,A,B,C) | D2 D,2 (E, D, E, F, | G,4) D,2 D2 | %51
w: * vat, et|vi\- * * * * * *||vat, et vi\- * * *|* vat, et|
 (DCB,A, G, F, G,2) | D,2 D,2 (_E,2 C,2) | !fermata!G,8 |] %54
w: vi\- * * * * * *|vat et vi\- *|vat.|

